img/australia-icon.svg

<svg width="49" height="44" viewBox="0 0 49 44" fill="none" xmlns="http://www.w3.org/2000/svg">
<path fill-rule="evenodd" clip-rule="evenodd" d="M4.12213 32.8774C4.60545 29.7855 3.25319 26.616 1.79811 23.6999C1.60829 23.3198 1.41741 22.944 1.22904 22.5731C0.830641 21.7887 0.443482 21.0264 0.101358 20.2927C-0.00147482 20.0704 -0.0271831 19.817 0.0293751 19.574L0.949732 15.7169C1.03714 15.3446 1.31479 15.0447 1.67985 14.931C3.6491 14.3105 9.93735 12.0769 10.5029 8.79371C10.5132 8.7265 10.5492 8.66962 10.5955 8.62309L15.9582 3.42685C16.092 3.29759 16.3079 3.3131 16.4262 3.45787C16.9301 4.09383 18.3337 5.51052 20.4212 4.81251L19.7733 4.15587C19.6448 4.03178 19.65 3.82497 19.7785 3.70088L22.2311 1.37421C22.2876 1.31733 22.3647 1.28631 22.447 1.28631H29.923C30.1904 1.28631 30.3394 1.6017 30.1698 1.80852L27.7686 4.74013C27.6504 4.89007 27.6812 5.10722 27.8406 5.21063C28.3202 5.52437 29.3175 6.17924 30.372 6.87169C31.1944 7.41168 32.0516 7.97452 32.7252 8.41627C33.5068 8.92814 34.5609 8.60758 34.9155 7.73895C35.3115 6.77209 35.6816 5.26751 35.6868 3.02873C35.6868 2.99254 35.692 2.95117 35.7073 2.91498L36.746 0.216038C36.8436 -0.0321403 37.183 -0.0579923 37.3167 0.174675C37.8258 1.06398 38.7358 2.95117 38.7358 5.15376L39.2345 4.79183C39.3734 4.68842 39.5687 4.71945 39.6716 4.85388L40.7616 6.2809C40.8079 6.34295 40.8284 6.42567 40.8233 6.50323C40.7513 7.27362 40.5508 11.5185 44.258 13.2196C44.3248 13.2506 44.3814 13.3023 44.4122 13.3695L48.9369 22.4694C48.9575 22.516 48.9677 22.5625 48.9677 22.6142V26.4455C48.9677 27.0297 48.7209 27.583 48.2838 27.9707C46.51 29.5529 41.8722 33.9425 41.5894 36.9827C41.574 37.143 41.4403 37.2671 41.2758 37.2671H33.3011C33.2497 37.2671 33.1983 37.2567 33.152 37.2309C32.6378 36.9517 29.923 33.3738 29.3729 29.9045C29.3317 29.6459 29.0078 29.5477 28.8279 29.7442L27.0436 31.7296C26.8791 31.9157 26.6426 32.0191 26.3958 32.0191C26.1232 32.0191 25.8919 31.8227 25.8457 31.5538C25.64 30.3439 24.7248 27.1797 20.8891 27.1797C18.8324 27.1797 15.6292 27.9759 12.6573 28.8755C12.6573 28.8755 9.36663 29.9096 6.93462 33.2187C6.85236 33.3324 6.71867 33.3996 6.57471 33.3996H4.56946C4.29181 33.3996 4.081 33.1515 4.12213 32.8774ZM40.5199 43.2026C40.3503 43.8696 39.5739 44.1695 39.0031 43.7817C37.9543 43.0682 36.3706 41.8222 34.936 39.9918C34.7253 39.723 34.9155 39.3249 35.26 39.3249H40.9673C41.2397 39.3249 41.4351 39.5782 41.3683 39.8419L40.5199 43.2026Z" fill="#0E8784"/>
</svg>

<svg xmlns="http://www.w3.org/2000/svg" width="49" height="44" fill="none"><path fill="#0E8784" fill-rule="evenodd" d="M4.122 32.877c.483-3.092-.869-6.261-2.324-9.177-.19-.38-.38-.756-.569-1.127a77.1 77.1 0 0 1-1.128-2.28 1.113 1.113 0 0 1-.072-.719l.92-3.857c.088-.372.366-.672.73-.786 1.97-.62 8.258-2.854 8.824-6.137a.31.31 0 0 1 .092-.17l5.363-5.197a.319.319 0 0 1 .468.03c.504.637 1.908 2.054 3.995 1.356l-.648-.657a.317.317 0 0 1 .006-.455l2.452-2.327a.302.302 0 0 1 .216-.088h7.476a.32.32 0 0 1 .247.523L27.769 4.74a.321.321 0 0 0 .072.47l2.531 1.662 2.353 1.544a1.483 1.483 0 0 0 2.19-.677c.397-.967.767-2.471.772-4.71 0-.036.005-.078.02-.114L36.746.216a.317.317 0 0 1 .57-.041c.51.889 1.42 2.776 1.42 4.979l.498-.362a.315.315 0 0 1 .438.062l1.09 1.427a.34.34 0 0 1 .061.222c-.072.77-.272 5.015 3.435 6.717a.312.312 0 0 1 .154.15l4.525 9.1c.02.046.03.093.03.144v3.831c0 .585-.246 1.138-.683 1.526-1.774 1.582-6.412 5.972-6.695 9.012a.314.314 0 0 1-.313.284H33.3a.304.304 0 0 1-.149-.036c-.514-.28-3.229-3.857-3.78-7.327a.315.315 0 0 0-.544-.16l-1.784 1.986a.863.863 0 0 1-.648.29.558.558 0 0 1-.55-.466c-.206-1.21-1.121-4.374-4.957-4.374-2.057 0-5.26.796-8.232 1.695 0 0-3.29 1.035-5.722 4.344a.443.443 0 0 1-.36.18H4.569a.454.454 0 0 1-.447-.522ZM40.52 43.203a.99.99 0 0 1-1.517.579 18.33 18.33 0 0 1-4.067-3.79.413.413 0 0 1 .324-.667h5.707c.273 0 .468.253.401.517l-.848 3.36Z" clip-rule="evenodd"/></svg>
